dist/img/calc_svg/layers.svg

<svg width="20" height="20" viewBox="0 0 20 20" fill="none" xmlns="http://www.w3.org/2000/svg">
<path d="M10 1.56909L1.46973 5.83342L2.96061 6.57886L5.63639 7.91675L1.46973 10.0001L5.63639 12.0834L1.46973 14.1667L10 18.4311L18.5303 14.1667L14.3636 12.0834L18.5303 10.0001L14.3636 7.91675L18.5303 5.83342L10 1.56909ZM10 3.43107L14.8031 5.83342L10 8.23576L5.19694 5.83342L10 3.43107ZM7.5 8.84774L10 10.0977L12.5 8.84774L14.8031 10.0001L10 12.4024L5.19694 10.0001L7.5 8.84774ZM7.5 13.0144L10 14.2644L12.5 13.0144L14.8031 14.1667L10 16.5691L5.19694 14.1667L7.5 13.0144Z" fill="white"/>
</svg>

<svg width="20" height="20" viewBox="0 0 20 20" fill="none" xmlns="http://www.w3.org/2000/svg"><path d="M10 1.57L1.47 5.832l1.49.746 2.676 1.338L1.47 10l4.166 2.083-4.166 2.084L10 18.43l8.53-4.264-4.166-2.084L18.53 10l-4.166-2.083 4.166-2.084L10 1.57zm0 1.861l4.803 2.402L10 8.236 5.197 5.833 10 3.431zM7.5 8.848l2.5 1.25 2.5-1.25L14.803 10 10 12.402 5.197 10 7.5 8.848zm0 4.166l2.5 1.25 2.5-1.25 2.303 1.153L10 16.569l-4.803-2.402L7.5 13.014z" fill="#fff"/></svg>
